X:1
T:Chi Chi
C:1955 - Charlie Parker
Z:Copyright © www.realbook.site
L:1/8
M:2/2
I:linebreak $
K:Ab
V:1 treble nm=" " snm=" "
V:1
 EAd |:"Ab13" cAEC .F2 z C |"Db" DcB_F"Dbm" z c2 B |"Abmaj7" (3GA=A BG _AE=F_G | %4
"Ebm7" z2 z !>!_c"Ab13" z !>!A z c |$"Db13" !>!B6 z2 |"Dbm7" z .A2 _F ABAG |"Cm7" z !>!B3 GECG, | %8
"Bm7" _G,!>!=D- D4- DC |"Bbm7" !>!._D2 z2 z A2 F |$"Dbm6" ABA_F ABAG- | %11
"Cm7" GE=F_G-"F7b9" G2 z =E |1"Bbm7" FABA"Eb13" !>!c_EAd :|2"Bbm7" FABA"Eb13" !>!c !>!c3 |] %14

